X:10
T:The Men of Leinster
C:Tom Anderson
B:William Livingstone Volume 1
H:
O:Kevin Fraser
Z:Kevin Fraser
Q:1/4=90
K:HP
M:6/8
L:1/8
R:March
U: R = ///
U: r = //
U: V = !accent!
V:M gstem=up stem=down name="Melody" sname="Melody" 
V:H gstem=up stem=down name="Harmony" sname="Harmony"
V:C gstem=up stem=down name="C-Harmony" sname="C-Harmony"
V:S gstem=up stem=down clef=none dyn=up name="Snare" sname="Snare"
V:B gstem=up stem=down clef=none dyn=up name="Bass" sname="Bass"
V:T gstem=up stem=down clef=none dyn=up name="Tenor" sname="Tenor"
V:BB gstem=up stem=down name="Brass Bass" sname="Bass" transpose=-1  octave=-2 clef=bass
V:BC gstem=up stem=down name="Brass Chord" sname="ABCD-D" transpose=-1
V:BD gstem=up stem=down name="Brass Chord 2" sname="ABCD-B" transpose=-1
V:P gstem=up stem=down name="Piano" sname="Piano" transpose=0 octave=-1
I:MIDI=program 110
%%MIDI gracedivider 40
% %score {M BC BD BB}
% %MIDI program 109 #bagpipes
%%MIDI vol 100
[V:M] e | {g}A2{GdGe}A {gBd}B2d | {g}e>d{e}B {g}d>B{d}A | {g}G>{d}G{e}G {g}G2{d}A | {g}B<de {gBd}B>A{d}G | 
[V:M]     {g}A2{GdGe}A {gBd}B2d | {g}e2{GdGe}A {ag}a3 | {f}g>f{g}e {Gdc}d>eg | {aBd}B>A{d}G {g}A2 :|]
[V:M] {g}B/<d/ | {gef}e2{A}e {g}A2{GdGe}A | {g}e>fg {ag}a2e | {Gdc}d2{c}d {g}G>{d}G{e}G | {g}B<de {gBd}B>A{d}G |
[V:M]            {gef}e2{A}e {g}A2{GdGe}A | {g}e>fg {ag}a3 |  {f}g>f{g}e {Gdc}d>eg | {aBd}B>A{d}G {g}A2 :|]
[V:M] e | {g}A2{GdGe}A {gAGAG}A2{d}B | {g}e>d{e}B {g}B2{GdGe}A | {g}G>{d}B{e}A {g}G2{d}A | {g}B<de {gBd}B>A{d}G | 
[V:M]     {g}A2{GdGe}A {gAGAG}A2{d}B | {g}e>d{e}B  {ag}a3 | {f}g>f{g}e {Gdc}d>eg | {aBd}B>A{d}G {g}A2 :|]
[V:M] {g}B/<d/ | {g}e2{GdGe}A {g}e>d{c}d | {g}e2{GdGe}A {ag}a2e | {gf}g>{a}fg {g}G>{d}G{e}G | {g}B<de {gBd}B>A{d}G |
[V:M]            {g}e2{GdGe}A {g}e>d{c}d | {g}e2{GdGe}A {ag}a3 | {f}g>f{g}e {Gdc}d>eg | {aBd}B>A{d}G {g}A2 :|]


